posts/2020-05-14/simulated-annealing-with-python/tsp_circle_compare.svg

<?xml version="1.0" encoding="utf-8" standalone="no"?>
<!DOCTYPE svg PUBLIC "-//W3C//DTD SVG 1.1//EN"
  "http://www.w3.org/Graphics/SVG/1.1/DTD/svg11.dtd">
<svg height="255.622516pt" version="1.1" viewBox="0 0 572.4 255.622516" width="572.4pt" xmlns="http://www.w3.org/2000/svg" xmlns:xlink="http://www.w3.org/1999/xlink">
 <metadata>
  <rdf:RDF xmlns:cc="http://creativecommons.org/ns#" xmlns:dc="http://purl.org/dc/elements/1.1/" xmlns:rdf="http://www.w3.org/1999/02/22-rdf-syntax-ns#">
   <cc:Work>
    <dc:type rdf:resource="http://purl.org/dc/dcmitype/StillImage"/>
    <dc:date>2021-06-09T15:58:15.566815</dc:date>
    <dc:format>image/svg+xml</dc:format>
    <dc:creator>
     <cc:Agent>
      <dc:title>Matplotlib v3.4.2, https://matplotlib.org/</dc:title>
     </cc:Agent>
    </dc:creator>
   </cc:Work>
  </rdf:RDF>
 </metadata>
 <defs>
  <style type="text/css">*{stroke-linecap:butt;stroke-linejoin:round;}</style>
 </defs>
 <g id="figure_1">
  <g id="patch_1">
   <path d="M 0 255.622516 
L 572.4 255.622516 
L 572.4 0 
L 0 0 
z
" style="fill:none;"/>
  </g>
  <g id="axes_1">
   <g id="patch_2">
    <path d="M 7.2 248.422516 
L 260.836364 248.422516 
L 260.836364 7.2 
L 7.2 7.2 
z
" style="fill:none;"/>
   </g>
   <g id="line2d_1">
    <path clip-path="url(#pf007d223bc)" d="M 227.289149 60.045934 
L 18.728926 127.811258 
L 40.747214 195.576583 
L 249.307438 127.811258 
L 227.289149 195.576583 
L 40.747214 60.045934 
L 98.391842 237.457857 
L 169.644521 18.16466 
L 169.644521 237.457857 
L 98.391842 18.16466 
L 227.289149 60.045934 
" style="fill:none;stroke:#2980b9;stroke-linecap:square;stroke-width:1.5;"/>
   </g>
  </g>
  <g id="axes_2">
   <g id="patch_3">
    <path d="M 311.563636 248.422516 
L 565.2 248.422516 
L 565.2 7.2 
L 311.563636 7.2 
z
" style="fill:none;"/>
   </g>
   <g id="line2d_2">
    <path clip-path="url(#pfc319ada27)" d="M 402.755479 237.457857 
L 345.110851 195.576583 
L 323.092562 127.811258 
L 345.110851 60.045934 
L 402.755479 18.16466 
L 474.008158 18.16466 
L 531.652786 60.045934 
L 553.671074 127.811258 
L 531.652786 195.576583 
L 474.008158 237.457857 
L 402.755479 237.457857 
" style="fill:none;stroke:#27ae60;stroke-linecap:square;stroke-width:1.5;"/>
   </g>
  </g>
 </g>
 <defs>
  <clipPath id="pf007d223bc">
   <rect height="241.222516" width="253.636364" x="7.2" y="7.2"/>
  </clipPath>
  <clipPath id="pfc319ada27">
   <rect height="241.222516" width="253.636364" x="311.563636" y="7.2"/>
  </clipPath>
 </defs>
</svg>

<?xml version="1.0" encoding="UTF-8"?>
<!DOCTYPE svg  PUBLIC '-//W3C//DTD SVG 1.1//EN'  'http://www.w3.org/Graphics/SVG/1.1/DTD/svg11.dtd'>
<svg width="572.4pt" height="255.62pt" version="1.1" viewBox="0 0 572.4 255.622516" xmlns="http://www.w3.org/2000/svg">
<metadata>
<rdf:RDF xmlns:cc="http://creativecommons.org/ns#" xmlns:dc="http://purl.org/dc/elements/1.1/" xmlns:rdf="http://www.w3.org/1999/02/22-rdf-syntax-ns#">
<cc:Work>
<dc:type rdf:resource="http://purl.org/dc/dcmitype/StillImage"/>
<dc:date>2021-06-09T15:58:15.566815</dc:date>
<dc:format>image/svg+xml</dc:format>
<dc:creator>
<cc:Agent>
<dc:title>Matplotlib v3.4.2, https://matplotlib.org/</dc:title>
</cc:Agent>
</dc:creator>
</cc:Work>
</rdf:RDF>
</metadata>
<defs>
<style type="text/css">*{stroke-linecap:butt;stroke-linejoin:round;}</style>
</defs>
<path d="m0 255.62h572.4v-255.62h-572.4z" fill="none"/>
<path d="m7.2 248.42h253.64v-241.22h-253.64z" fill="none"/>
<path d="m227.29 60.046l-208.56 67.765 22.018 67.765 208.56-67.765-22.018 67.765-186.54-135.53 57.645 177.41 71.253-219.29v219.29l-71.253-219.29 128.9 41.881" clip-path="url(#b)" fill="none" stroke="#2980b9" stroke-linecap="square" stroke-width="1.5"/>
<path d="m311.56 248.42h253.64v-241.22h-253.64z" fill="none"/>
<path d="m402.76 237.46l-57.645-41.881-22.018-67.765 22.018-67.765 57.645-41.881h71.253l57.645 41.881 22.018 67.765-22.018 67.765-57.645 41.881h-71.253" clip-path="url(#a)" fill="none" stroke="#27ae60" stroke-linecap="square" stroke-width="1.5"/>
<defs>
<clipPath id="b">
<rect x="7.2" y="7.2" width="253.64" height="241.22"/>
</clipPath>
<clipPath id="a">
<rect x="311.56" y="7.2" width="253.64" height="241.22"/>
</clipPath>
</defs>
</svg>
